X: 42998
T: Willie's Fling
R: strathspey
M: 4/4
K: Gmajor
|:d>BG>B (3AGE G>E|D>G (3BAG A2B>c|d>BG>B (3AGE G>E|1 D>G (3BAG A2 G>B:|2 D>G (3BAG A2 G>A||
B>de>f g2e>d|B>dg>e d>BG>A|B>de>f g2g>e|d>BG>B A2 G>A|
B>de>f g2e>d|B>dg>e d>BG>A|B>de>f gzg2|g2g>b (3agf g>e||

